X:299
T:Grantully Bridge
R:Strathspey
B:The Athole Collection
M:C
L:1/8
K:B_
D|B,>DF>A ~B>F G<B|F<B, F>D C2 C>D|B,>DF>A B>FB>g|
F<B c>d B2B:|
(3f/g/a/|b>fd>f B>dB>F|G>BF>D C2 C>f|b>fd>f B>cB>F|
G>BA>c Bc/d/ e/f/g/a/|b>fd>f ~B>cB>F|G<B F>D C2 C>D|
B,>DF>A B>FG>g|F>Bc>d B2B||

